lib/flags/kp-korea-north.svg

<svg xmlns="http://www.w3.org/2000/svg" fill="none" aria-hidden="true" viewBox="0 0 42 30"><g id="Country=KP - Korea (North), Size=sm (36x24)" filter="url(#filter0_dd_91_27012)"><g clip-path="url(#clip0_91_27012)"><g id="flag"><mask id="mask0_91_27012" width="36" height="24" x="3" y="2" maskUnits="userSpaceOnUse" style="mask-type:alpha"><rect id="mask" width="36" height="24" x="3" y="2" fill="white"/></mask><g mask="url(#mask0_91_27012)"><g id="contents"><path id="background" fill="#3D58DB" fill-rule="evenodd" d="M3 2V26H39V2H3Z" clip-rule="evenodd"/><mask id="mask1_91_27012" width="36" height="24" x="3" y="2" maskUnits="userSpaceOnUse" style="mask-type:alpha"><path id="background_2" fill="white" fill-rule="evenodd" d="M3 2V26H39V2H3Z" clip-rule="evenodd"/></mask><g mask="url(#mask1_91_27012)"><path id="bottom" fill="#C51918" stroke="#F7FCFF" stroke-width="2" d="M3 7H2V8V20V21H3H39H40V20V8V7H39H3Z"/><g id="mark"><path id="Oval 39" fill="#F7FCFF" fill-rule="evenodd" d="M14.25 19C17.3566 19 19.875 16.7614 19.875 14C19.875 11.2386 17.3566 9 14.25 9C11.1434 9 8.625 11.2386 8.625 14C8.625 16.7614 11.1434 19 14.25 19Z" clip-rule="evenodd"/><path id="Star 10" fill="#C51918" fill-rule="evenodd" d="M14.2443 15.8697L11.1884 17.7599L12.2665 14.5924L9.2998 12.5931L13.022 12.5257L14.2443 9.3999L15.4667 12.5257L19.1888 12.5931L16.2221 14.5924L17.3002 17.7599L14.2443 15.8697Z" clip-rule="evenodd"/></g></g></g></g></g></g></g><defs><filter id="filter0_dd_91_27012" width="42" height="30" x="0" y="0" color-interpolation-filters="sRGB" filterUnits="userSpaceOnUse"><feFlood flood-opacity="0" result="BackgroundImageFix"/><feColorMatrix in="SourceAlpha" result="hardAlpha" values="0 0 0 0 0 0 0 0 0 0 0 0 0 0 0 0 0 0 127 0"/><feOffset dy="1"/><feGaussianBlur stdDeviation="1"/><feColorMatrix values="0 0 0 0 0.0627451 0 0 0 0 0.0941176 0 0 0 0 0.156863 0 0 0 0.06 0"/><feBlend in2="BackgroundImageFix" result="effect1_dropShadow_91_27012"/><feColorMatrix in="SourceAlpha" result="hardAlpha" values="0 0 0 0 0 0 0 0 0 0 0 0 0 0 0 0 0 0 127 0"/><feOffset dy="1"/><feGaussianBlur stdDeviation="1.5"/><feColorMatrix values="0 0 0 0 0.0627451 0 0 0 0 0.0941176 0 0 0 0 0.156863 0 0 0 0.1 0"/><feBlend in2="effect1_dropShadow_91_27012" result="effect2_dropShadow_91_27012"/><feBlend in="SourceGraphic" in2="effect2_dropShadow_91_27012" result="shape"/></filter><clipPath id="clip0_91_27012"><rect width="36" height="24" x="3" y="2" fill="white" rx="2"/></clipPath></defs></svg>

<svg xmlns="http://www.w3.org/2000/svg" fill="none" aria-hidden="true" viewBox="0 0 42 30"><g filter="url(#a)"><g clip-path="url(#b)"><mask id="c" width="36" height="24" x="3" y="2" maskUnits="userSpaceOnUse" style="mask-type:alpha"><path fill="#fff" d="M3 2h36v24H3z"/></mask><g mask="url(#c)"><path fill="#3D58DB" fill-rule="evenodd" d="M3 2v24h36V2H3Z" clip-rule="evenodd"/><mask id="d" width="36" height="24" x="3" y="2" maskUnits="userSpaceOnUse" style="mask-type:alpha"><path fill="#fff" fill-rule="evenodd" d="M3 2v24h36V2H3Z" clip-rule="evenodd"/></mask><g mask="url(#d)"><path fill="#C51918" stroke="#F7FCFF" stroke-width="2" d="M3 7H2v14h38V7H3Z"/><g fill-rule="evenodd" clip-rule="evenodd"><path fill="#F7FCFF" d="M14.25 19c3.107 0 5.625-2.239 5.625-5s-2.518-5-5.625-5-5.625 2.239-5.625 5 2.518 5 5.625 5Z"/><path fill="#C51918" d="m14.244 15.87-3.056 1.89 1.079-3.168L9.3 12.593l3.722-.067L14.244 9.4l1.223 3.126 3.722.067-2.967 2L17.3 17.76l-3.056-1.89Z"/></g></g></g></g></g><defs><clipPath id="b"><rect width="36" height="24" x="3" y="2" fill="#fff" rx="2"/></clipPath><filter id="a" width="42" height="30" x="0" y="0" color-interpolation-filters="sRGB" filterUnits="userSpaceOnUse"><feFlood flood-opacity="0" result="BackgroundImageFix"/><feColorMatrix in="SourceAlpha" result="hardAlpha" values="0 0 0 0 0 0 0 0 0 0 0 0 0 0 0 0 0 0 127 0"/><feOffset dy="1"/><feGaussianBlur stdDeviation="1"/><feColorMatrix values="0 0 0 0 0.0627451 0 0 0 0 0.0941176 0 0 0 0 0.156863 0 0 0 0.06 0"/><feBlend in2="BackgroundImageFix" result="effect1_dropShadow_91_27012"/><feColorMatrix in="SourceAlpha" result="hardAlpha" values="0 0 0 0 0 0 0 0 0 0 0 0 0 0 0 0 0 0 127 0"/><feOffset dy="1"/><feGaussianBlur stdDeviation="1.5"/><feColorMatrix values="0 0 0 0 0.0627451 0 0 0 0 0.0941176 0 0 0 0 0.156863 0 0 0 0.1 0"/><feBlend in2="effect1_dropShadow_91_27012" result="effect2_dropShadow_91_27012"/><feBlend in="SourceGraphic" in2="effect2_dropShadow_91_27012" result="shape"/></filter></defs></svg>
